twotone/svg/local_laundry_service.svg

<svg xmlns="http://www.w3.org/2000/svg" width="24" height="24"><path fill="none" d="M0 0h24v24H0V0z"/><g fill="currentColor"><path opacity=".3" d="M5.99 4L6 20h12V4H5.99c.01 0 0 0 0 0zM11 5c.55 0 1 .45 1 1s-.45 1-1 1-1-.45-1-1 .45-1 1-1zM8 5c.55 0 1 .45 1 1s-.45 1-1 1-1-.45-1-1 .45-1 1-1zm4 4c2.76 0 5 2.24 5 5s-2.24 5-5 5-5-2.24-5-5 2.24-5 5-5z"/><path d="M18 2.01L6 2c-1.11 0-2 .89-2 2v16c0 1.11.89 2 2 2h12c1.11 0 2-.89 2-2V4c0-1.11-.89-1.99-2-1.99zM18 20H6L5.99 4H18v16z"/><circle cx="8" cy="6" r="1"/><circle cx="11" cy="6" r="1"/><path d="M12 19c2.76 0 5-2.24 5-5s-2.24-5-5-5-5 2.24-5 5 2.24 5 5 5zm2.36-7.36c1.3 1.3 1.3 3.42 0 4.72-1.3 1.3-3.42 1.3-4.72 0l4.72-4.72z"/></g></svg>

<?xml version="1.0" encoding="utf-8"?>
<!-- Generator: Adobe Illustrator 19.1.0, SVG Export Plug-In . SVG Version: 6.00 Build 0)  -->
<svg version="1.1" xmlns="http://www.w3.org/2000/svg" xmlns:xlink="http://www.w3.org/1999/xlink" x="0px" y="0px" width="24px"
	 height="24px" viewBox="0 0 24 24" enable-background="new 0 0 24 24" xml:space="preserve">
<g id="Bounding_Boxes">
	<path fill="none" d="M0,0h24v24H0V0z"/>
</g>
<g id="Duotone" fill="currentColor">
	<g id="ui_x5F_spec_x5F_header_copy_2">
	</g>
	<g>
		<path opacity="0.3" d="M5.99,4L6,20h12V4L5.99,4C6,4,5.99,4,5.99,4z M11,5c0.55,0,1,0.45,1,1c0,0.55-0.45,1-1,1
			c-0.55,0-1-0.45-1-1C10,5.45,10.45,5,11,5z M8,5c0.55,0,1,0.45,1,1c0,0.55-0.45,1-1,1C7.45,7,7,6.55,7,6C7,5.45,7.45,5,8,5z M12,9
			c2.76,0,5,2.24,5,5c0,2.76-2.24,5-5,5c-2.76,0-5-2.24-5-5C7,11.24,9.24,9,12,9z"/>
		<path d="M18,2.01L6,2C4.89,2,4,2.89,4,4v16c0,1.11,0.89,2,2,2h12c1.11,0,2-0.89,2-2V4C20,2.89,19.11,2.01,18,2.01z M18,20H6
			L5.99,4c0,0,0,0,0.01,0h12V20z"/>
		<circle cx="8" cy="6" r="1"/>
		<circle cx="11" cy="6" r="1"/>
		<path d="M12,19c2.76,0,5-2.24,5-5c0-2.76-2.24-5-5-5c-2.76,0-5,2.24-5,5C7,16.76,9.24,19,12,19z M14.36,11.64
			c1.3,1.3,1.3,3.42,0,4.72c-1.3,1.3-3.42,1.3-4.72,0L14.36,11.64z"/>
	</g>
</g>
</svg>
